X:112 
T:Kilcummin Slide* 
B:CRE3.040 (gan ainm)
F:file ID: cre.3/112kilc
R:slide
Q:180
M:12/8
L:1/8
K:G
z|g2e ded B2G GBG|ABA DFA G2B def|
g2e ded B2G GBG|ABA DFA G3 G2:|
B|:ded e2d b2b bag|aba e2f g3 edB|
d2g gfg b3 bag|1 aba e2f g3 g2e:|
[2 aba e2f g3 ged||

%%%

